X: 29470
T: Night We Had Bears, The
R: reel
M: 4/4
K: Amajor
E|:FcBF AFF2|AFAB BABc|dDD2B3c|BAFE FABA|
FcBF AFF2|AFAB BABc|dDD2B3c|BEE2 cBAG|
FcBF AFF2|AFAB BABc|dDD2B3c|BAFE FABA|
FcBF AFF2|AFAB BABc|d3ef3e|ABBA Bcdf|
e2ce afec|BABc BAce|fAAe fggB|BgBg agfa|
e2ce afec|BABc BAce|fecB BAce|fecB BAcf|
e2ce afec|BABc BAce|fAAe fggB|BgBg agfa|
e3dc2(c2|c)dcAF3E|FcAF dcAe|dcfe dcBA:|

